src/assets/selectIcons/arma_19.svg

<svg xmlns="http://www.w3.org/2000/svg" viewBox="0 0 512 512"><path d="M0 0h512v512H0z"/><path fill="#fff" d="M88.38 188.7c-31.81 31.8-31.96 83.6-.24 115.3.28.3.58.5.86.8-14.1 3.4-27.48 10.5-38.46 21.5-31.81 31.8-31.96 83.7-.23 115.4 31.72 31.7 83.59 31.6 115.39-.3 12.8-12.8 20.5-29 23-45.7 6.4 8.1 9.7 15 11.3 20.9 2.1 8.1 1.2 14.5-.9 20.8-2.1 6.3-5.5 12-8.4 18.4-1.4 3.2-2.7 6.6-2.9 11.2-.2 4.5 1.8 10.2 5.4 13.8 5.5 5.5 13.3 5.2 18.7 3.6 5.4-1.5 10.6-4.3 16.2-7.9 11.4-7.2 24.8-18 39.5-31 29.3-25.9 63.4-60 90.7-87.2 27.2-27.3 61.3-61.4 87.2-90.7 13-14.7 23.8-28.1 31-39.5 3.6-5.7 6.4-10.8 7.9-16.2 1.6-5.4 1.9-13.2-3.6-18.7-3.6-3.6-9.3-5.6-13.8-5.4-4.6.2-8 1.5-11.2 2.9-6.4 2.8-12.1 6.3-18.4 8.4-6.3 2.1-12.7 3-20.8.9-5.9-1.6-12.8-4.9-20.9-11.3 16.7-2.5 32.9-10.2 45.7-23 31.9-31.8 32-83.67.3-115.4-31.7-31.72-83.6-31.58-115.4.24-11 10.98-18.1 24.36-21.5 38.46-.3-.28-.5-.58-.8-.86-31.7-31.72-83.5-31.57-115.3.24-21.5 21.42-28.5 51.92-21.1 79.22-27.3-7.4-57.8-.4-79.22 21.1zM103.7 204c23.6-23.6 61.3-23.7 84.7-.3 23.4 23.4 23.4 61.2-.2 84.8-23.6 23.6-61.3 23.6-84.7.2-23.45-23.4-23.38-61.2.2-84.7zM204 103.7c23.5-23.58 61.3-23.65 84.7-.2 23.4 23.4 23.3 61.1-.2 84.7-23.6 23.6-61.4 23.6-84.8.2-23.4-23.4-23.3-61.1.3-84.7zM65.85 341.6c23.58-23.5 61.35-23.6 84.75-.2 23.4 23.4 23.3 61.2-.2 84.7-23.6 23.6-61.37 23.7-84.78.3-23.41-23.4-23.34-61.2.23-84.8zM341.6 65.85c23.6-23.57 61.4-23.64 84.8-.23s23.3 61.18-.3 84.78c-23.5 23.5-61.3 23.6-84.7.2-23.5-27.8-17.5-65.89.2-84.75zm-117 158.75c27.3 7.3 57.8.3 79.2-21.1 4.9-4.9 9-10.3 12.4-16 33.2 12.8 52.9 30.1 57.9 50 5.5 21.9-5.2 52.3-44.8 91.8-39.5 39.6-69.9 50.3-91.8 44.8-19.9-5-37.3-24.7-50-57.9 5.7-3.4 11.1-7.5 16-12.4 21.4-21.4 28.4-51.9 21.1-79.2z"/></svg>

<?xml version="1.0" encoding="UTF-8" standalone="no"?>
<!DOCTYPE svg PUBLIC "-//W3C//DTD SVG 1.1//EN" "http://www.w3.org/Graphics/SVG/1.1/DTD/svg11.dtd">
<svg width="100%" height="100%" viewBox="0 0 512 512" version="1.1" xmlns="http://www.w3.org/2000/svg" xmlns:xlink="http://www.w3.org/1999/xlink" xml:space="preserve" xmlns:serif="http://www.serif.com/" style="fill-rule:evenodd;clip-rule:evenodd;stroke-linejoin:round;stroke-miterlimit:2;">
    <rect x="0" y="0" width="512" height="512" style="fill-rule:nonzero;"/>
    <path d="M88.38,188.7C56.57,220.5 56.42,272.3 88.14,304C88.42,304.3 88.72,304.5 89,304.8C74.9,308.2 61.52,315.3 50.54,326.3C18.73,358.1 18.58,410 50.31,441.7C82.03,473.4 133.9,473.3 165.7,441.4C178.5,428.6 186.2,412.4 188.7,395.7C195.1,403.8 198.4,410.7 200,416.6C202.1,424.7 201.2,431.1 199.1,437.4C197,443.7 193.6,449.4 190.7,455.8C189.3,459 188,462.4 187.8,467C187.6,471.5 189.6,477.2 193.2,480.8C198.7,486.3 206.5,486 211.9,484.4C217.3,482.9 222.5,480.1 228.1,476.5C239.5,469.3 252.9,458.5 267.6,445.5C296.9,419.6 331,385.5 358.3,358.3C385.5,331 419.6,296.9 445.5,267.6C458.5,252.9 469.3,239.5 476.5,228.1C480.1,222.4 482.9,217.3 484.4,211.9C486,206.5 486.3,198.7 480.8,193.2C477.2,189.6 471.5,187.6 467,187.8C462.4,188 459,189.3 455.8,190.7C449.4,193.5 443.7,197 437.4,199.1C431.1,201.2 424.7,202.1 416.6,200C410.7,198.4 403.8,195.1 395.7,188.7C412.4,186.2 428.6,178.5 441.4,165.7C473.3,133.9 473.4,82.03 441.7,50.3C410,18.58 358.1,18.72 326.3,50.54C315.3,61.52 308.2,74.9 304.8,89C304.5,88.72 304.3,88.42 304,88.14C272.3,56.42 220.5,56.57 188.7,88.38C167.2,109.8 160.2,140.3 167.6,167.6C140.3,160.2 109.8,167.2 88.38,188.7ZM103.7,204C127.3,180.4 165,180.3 188.4,203.7C211.8,227.1 211.8,264.9 188.2,288.5C164.6,312.1 126.9,312.1 103.5,288.7C80.05,265.3 80.12,227.5 103.7,204ZM204,103.7C227.5,80.12 265.3,80.05 288.7,103.5C312.1,126.9 312,164.6 288.5,188.2C264.9,211.8 227.1,211.8 203.7,188.4C180.3,165 180.4,127.3 204,103.7ZM65.85,341.6C89.43,318.1 127.2,318 150.6,341.4C174,364.8 173.9,402.6 150.4,426.1C126.8,449.7 89.03,449.8 65.62,426.4C42.21,403 42.28,365.2 65.85,341.6ZM341.6,65.85C365.2,42.28 403,42.21 426.4,65.62C449.8,89.03 449.7,126.8 426.1,150.4C402.6,173.9 364.8,174 341.4,150.6C317.9,122.8 323.9,84.71 341.6,65.85ZM224.6,224.6C251.9,231.9 282.4,224.9 303.8,203.5C308.7,198.6 312.8,193.2 316.2,187.5C349.4,200.3 369.1,217.6 374.1,237.5C379.6,259.4 368.9,289.8 329.3,329.3C289.8,368.9 259.4,379.6 237.5,374.1C217.6,369.1 200.2,349.4 187.5,316.2C193.2,312.8 198.6,308.7 203.5,303.8C224.9,282.4 231.9,251.9 224.6,224.6Z" style="fill:rgb(214,206,136);fill-rule:nonzero;"/>
</svg>
